packages/kaspersky-hexa-ui-icons/src/iconsSVGs/16x12/FlagEt.svg

<svg width="16" height="12" viewBox="0 0 16 12" fill="none" xmlns="http://www.w3.org/2000/svg">
<g clip-path="url(#clip0_41813_2040)">
<mask id="mask0_41813_2040" style="mask-type:luminance" maskUnits="userSpaceOnUse" x="0" y="0" width="16" height="12">
<rect width="16" height="12" rx="2" fill="white"/>
</mask>
<g mask="url(#mask0_41813_2040)">
<path fill-rule="evenodd" clip-rule="evenodd" d="M0 4H16V0H0V4Z" fill="#20AA46"/>
<path fill-rule="evenodd" clip-rule="evenodd" d="M0 12H16V8H0V12Z" fill="#E92F3B"/>
<path fill-rule="evenodd" clip-rule="evenodd" d="M0 8H16V4H0V8Z" fill="#FADF50"/>
<circle cx="7.99995" cy="6.00001" r="2.8" fill="#205CCA"/>
<mask id="path-6-inside-1_41813_2040" fill="white">
<path fill-rule="evenodd" clip-rule="evenodd" d="M8.09324 6.76322L6.97365 7.57043L7.38674 6.24408L6.2817 5.41661L7.6566 5.40409L8.09324 4.08548L8.52988 5.40409L9.90477 5.41661L8.79974 6.24408L9.21283 7.57043L8.09324 6.76322Z"/>
</mask>
<path fill-rule="evenodd" clip-rule="evenodd" d="M8.09324 6.76322L6.97365 7.57043L7.38674 6.24408L6.2817 5.41661L7.6566 5.40409L8.09324 4.08548L8.52988 5.40409L9.90477 5.41661L8.79974 6.24408L9.21283 7.57043L8.09324 6.76322Z" stroke="#FFDB3D" stroke-width="0.8" mask="url(#path-6-inside-1_41813_2040)"/>
</g>
</g>
<defs>
<clipPath id="clip0_41813_2040">
<rect width="16" height="12" fill="white"/>
</clipPath>
</defs>
</svg>

<svg xmlns="http://www.w3.org/2000/svg" width="16" height="12" fill="none" viewBox="0 0 16 12"><g clip-path="url(#a)"><mask id="b" width="16" height="12" x="0" y="0" maskUnits="userSpaceOnUse" style="mask-type:luminance"><rect width="16" height="12" fill="#fff" rx="2"/></mask><g mask="url(#b)"><path fill="#20aa46" fill-rule="evenodd" d="M0 4h16V0H0z" clip-rule="evenodd"/><path fill="#e92f3b" fill-rule="evenodd" d="M0 12h16V8H0z" clip-rule="evenodd"/><path fill="#fadf50" fill-rule="evenodd" d="M0 8h16V4H0z" clip-rule="evenodd"/><circle cx="8" cy="6" r="3" fill="#205cca"/><mask id="c" fill="#fff"><path fill-rule="evenodd" d="m8.0932 6.7632-1.1195.8072.413-1.3263-1.105-.8275 1.3749-.0125.4366-1.3186L8.53 5.404l1.3749.0125-1.105.8275.413 1.3263z" clip-rule="evenodd"/></mask><path stroke="#ffdb3d" d="m8.0932 6.7632-1.1195.8072.413-1.3263-1.105-.8275 1.3749-.0125.4366-1.3186L8.53 5.404l1.3749.0125-1.105.8275.413 1.3263z" clip-rule="evenodd" mask="url(#c)"/></g></g><defs><clipPath id="a"><path fill="#fff" d="M0 0h16v12H0z"/></clipPath></defs></svg>
